X:1
T:Title
%%score { ( 1 4 ) | ( 2 3 ) }
L:1/8
M:3/4
K:Ab
V:1 treble nm="Grand Piano"
V:4 treble 
V:2 bass 
V:3 bass 
V:1
 z2 z2[Q:1/4=100] [CA]>[DB] | [Ec]3 [Fd] [Ec]>[DB] | [CA]4 G>A | B3 E [EA]>B |[M:2/4] c4 | %5
[M:1/4] [CA]>[DB] |[M:3/4] [Ec]3 [Fd] c>B | A4 G>F | E2 A2 B2 |[M:2/4] [A,CA]4 |[M:1/4] G>A | %11
[M:3/4] B4 z2 | [Ac]4 z2 |[M:7/8] e3 cd3/2c3/2 |[M:2/4] B4 |[M:1/4] E>A |[M:3/4] c3 [Fd] c>B | %17
 A4 G>F | E2 A2 B2 |[M:2/4] [CA]4 |] %20
V:2
 z2 z2 [A,,E,]>[A,,E,] | [A,,A,]3 [D,A,] [E,G,]>[E,G,] | [A,,A,]4 [E,B,D]>[E,A,C] | %3
 [E,G,D]3 [D,G,] [C,A,]>[E,G,E] |[M:2/4] [A,E]4 |[M:1/4] [A,,A,]>[A,,A,] | %6
[M:3/4] [A,,A,]3 [D,A,] [E,G,E]>[=E,G,D] | [F,A,C]4 [=D,A,_C]>[D,A,C] | C4 z2 |[M:2/4] A,,4 | %10
[M:1/4] B,>C |[M:3/4] D4[K:treble] z2 | A,>A, A,2 [A,E]>[A,B,E] | %13
[M:7/8] [A,CA]3[K:bass] [A,E][G,B,E]3/2[A,E]3/2 |[M:2/4] [E,G,E]4 |[M:1/4] [A,C]>[A,C] | %16
[M:3/4] [A,E]3 [D,A,] [E,G,E]>[=E,G,D] | [F,A,C]4 [=D,A,_C]>[D,A,C] | C4 z2 |[M:2/4] [A,,A,]4 |] %20
V:3
 x6 | x6 | x6 | x6 |[M:2/4] x4 |[M:1/4] x2 |[M:3/4] x6 | x6 | [E,A,]2 E,2 [E,G,D]2 |[M:2/4] x4 | %10
[M:1/4] x2 |[M:3/4] [E,G,]>E, E,[K:treble]F E>G | x6 |[M:7/8] x3[K:bass] x4 |[M:2/4] x4 | %15
[M:1/4] x2 |[M:3/4] x6 | x6 | [E,A,]2 E,2 [E,G,D]2 |[M:2/4] x4 |] %20
V:4
 x6 | x6 | x6 | x6 |[M:2/4] x4 |[M:1/4] x2 |[M:3/4] x6 | x6 | x6 |[M:2/4] x4 |[M:1/4] x2 | %11
[M:3/4] z z/ G,/ G,d c>B | E>E E2 c>d |[M:7/8] x7 |[M:2/4] x4 |[M:1/4] x2 |[M:3/4] x6 | x6 | x6 | %19
[M:2/4] x4 |] %20

